X: 302
T: Rock Valley Jig
C:John Burt
M:6/8
R:jig
L:1/8
Z:Alf Warnock - alf0@rogers.com
K:C
(3G,/A,/B,/|\
"C"C2E GFE|"Dm"D2E F2A|"G7"GAG GBd|"C"cBc AGE|
"C"C2E GFE|"Dm"D2E F2A|"G7"GAG GBd|"C"c3 c2:|
e|"C"gag gag|"Am"ecc cBA|"C"Gcc cBc|"G7"ed^c d2e|
"C"gag gag|"Am"ecc cBA|"Dm"GAc "G7"Bcd|"C"c3 c2:|
